% 
(This file has been optimized to run on )
( my sherline controlled by LinuxCNC )
G17 G20 G40 G49 G54 G80 G90 G94 F10 
G01 Z0.25 F5
#<Clearance> = 0.25 (clearance) 
#<DrillClearance> = 0.25 (Drill clearance) 
#<PieceThickness> = -0.76 (piece thickness) 
#<TabThickness> = -0.15 (tab thickness) 
#<DepthOfCut> = [#<PieceThickness>-#<TabThickness>]
#<DeltaCut> = [[#<PieceThickness>]/5]  (maximum Z cut) 
#<HalfPieceThickness> = [#<PieceThickness>/2]
#<HalfDeltaCut> = [[#<HalfPieceThickness>]/2]
#<HoleDepth> = -0.375  (Pin hole depth)
#<Section0> = 1
#<Section1> = 1
#<Section2> = 1
#<Section3> = 1
#<Section4> = 1
#<Section5> = 1
#<Section6> = 1
#<Section7> = 1
#<Section8> = 1

M06 T4    (Tool Change)  
G01 Z#<Clearance> F10 
X0.000000 Y0.000000
G81 Z#<HoleDepth> R#<DrillClearance> F5 	
X0.208300 Y0.000000
X0.416600 Y0.000000
X0.624900 Y0.000000
X0.833200 Y0.000000
X0.833200 Y0.275000
X0.624900 Y0.275000
X0.416600 Y0.275000
X0.208300 Y0.275000
X0.000000 Y0.275000
X0.000000 Y0.550000
X0.208300 Y0.550000
X0.416600 Y0.550000
X0.624900 Y0.550000
X0.833200 Y0.550000
X1.250000 Y0.550000
X1.458300 Y0.550000
X1.666600 Y0.550000
X1.874900 Y0.550000
X2.083200 Y0.550000
X2.083200 Y0.275000
X1.874900 Y0.275000
X1.666600 Y0.275000
X1.458300 Y0.275000
X1.250000 Y0.275000
X1.250000 Y0.000000
X1.458300 Y0.000000
X1.666600 Y0.000000
X1.874900 Y0.000000
X2.083200 Y0.000000
X2.500000 Y0.000000
X2.708300 Y0.000000
X2.916600 Y0.000000
X3.124900 Y0.000000
X3.333200 Y0.000000
X3.333200 Y0.275000
X3.124900 Y0.275000
X2.916600 Y0.275000
X2.708300 Y0.275000
X2.500000 Y0.275000
X2.500000 Y0.550000
X2.708300 Y0.550000
X2.916600 Y0.550000
X3.124900 Y0.550000
X3.333200 Y0.550000
X3.750000 Y0.550000
X3.958300 Y0.550000
X4.166600 Y0.550000
X4.374900 Y0.550000
X4.583200 Y0.550000
X4.583200 Y0.275000
X4.374900 Y0.275000
X4.166600 Y0.275000
X3.958300 Y0.275000
X3.750000 Y0.275000
X3.750000 Y0.000000
X3.958300 Y0.000000
X4.166600 Y0.000000
X4.374900 Y0.000000
X4.583200 Y0.000000
X5.000000 Y0.000000
X5.208300 Y0.000000
X5.416600 Y0.000000
X5.624900 Y0.000000
X5.833200 Y0.000000
X5.833200 Y0.275000
X5.624900 Y0.275000
X5.416600 Y0.275000
X5.208300 Y0.275000
X5.000000 Y0.275000
X5.000000 Y0.550000
X5.208300 Y0.550000
X5.416600 Y0.550000
X5.624900 Y0.550000
X5.833200 Y0.550000
X6.250000 Y0.550000
X6.458300 Y0.550000
X6.666600 Y0.550000
X6.874900 Y0.550000
X7.083200 Y0.550000
X7.083200 Y0.275000
X6.874900 Y0.275000
X6.666600 Y0.275000
X6.458300 Y0.275000
X6.250000 Y0.275000
X6.250000 Y0.000000
X6.458300 Y0.000000
X6.666600 Y0.000000
X6.874900 Y0.000000
X7.083200 Y0.000000
X7.500000 Y0.000000
X7.708300 Y0.000000
X7.916600 Y0.000000
X8.124900 Y0.000000
X8.333200 Y0.000000
X8.333200 Y0.275000
X8.124900 Y0.275000
X7.916600 Y0.275000
X7.708300 Y0.275000
X7.500000 Y0.275000
X7.500000 Y0.550000
X7.708300 Y0.550000
X7.916600 Y0.550000
X8.124900 Y0.550000
X8.333200 Y0.550000
X8.333200 Y1.100000
X8.124900 Y1.100000
X7.916600 Y1.100000
X7.708300 Y1.100000
X7.500000 Y1.100000
X7.500000 Y1.375000
X7.708300 Y1.375000
X7.916600 Y1.375000
X8.124900 Y1.375000
X8.333200 Y1.375000
X8.333200 Y1.650000
X8.124900 Y1.650000
X7.916600 Y1.650000
X7.708300 Y1.650000
X7.500000 Y1.650000
X7.083200 Y1.650000
X6.874900 Y1.650000
X6.666600 Y1.650000
X6.458300 Y1.650000
X6.250000 Y1.650000
X6.250000 Y1.375000
X6.458300 Y1.375000
X6.666600 Y1.375000
X6.874900 Y1.375000
X7.083200 Y1.375000
X7.083200 Y1.100000
X6.874900 Y1.100000
X6.666600 Y1.100000
X6.458300 Y1.100000
X6.250000 Y1.100000
X5.833200 Y1.100000
X5.624900 Y1.100000
X5.416600 Y1.100000
X5.208300 Y1.100000
X5.000000 Y1.100000
X5.000000 Y1.375000
X5.208300 Y1.375000
X5.416600 Y1.375000
X5.624900 Y1.375000
X5.833200 Y1.375000
X5.833200 Y1.650000
X5.624900 Y1.650000
X5.416600 Y1.650000
X5.208300 Y1.650000
X5.000000 Y1.650000
X4.583200 Y1.650000
X4.374900 Y1.650000
X4.166600 Y1.650000
X3.958300 Y1.650000
X3.750000 Y1.650000
X3.750000 Y1.375000
X3.958300 Y1.375000
X4.166600 Y1.375000
X4.374900 Y1.375000
X4.583200 Y1.375000
X4.583200 Y1.100000
X4.374900 Y1.100000
X4.166600 Y1.100000
X3.958300 Y1.100000
X3.750000 Y1.100000
X3.333200 Y1.100000
X3.124900 Y1.100000
X2.916600 Y1.100000
X2.708300 Y1.100000
X2.500000 Y1.100000
X2.500000 Y1.375000
X2.708300 Y1.375000
X2.916600 Y1.375000
X3.124900 Y1.375000
X3.333200 Y1.375000
X3.333200 Y1.650000
X3.124900 Y1.650000
X2.916600 Y1.650000
X2.708300 Y1.650000
X2.500000 Y1.650000
X2.083200 Y1.650000
X1.874900 Y1.650000
X1.666600 Y1.650000
X1.458300 Y1.650000
X1.250000 Y1.650000
X1.250000 Y1.375000
X1.458300 Y1.375000
X1.666600 Y1.375000
X1.874900 Y1.375000
X2.083200 Y1.375000
X2.083200 Y1.100000
X1.874900 Y1.100000
X1.666600 Y1.100000
X1.458300 Y1.100000
X1.250000 Y1.100000
X0.833200 Y1.100000
X0.624900 Y1.100000
X0.416600 Y1.100000
X0.208300 Y1.100000
X0.000000 Y1.100000
X0.000000 Y1.375000
X0.208300 Y1.375000
X0.416600 Y1.375000
X0.624900 Y1.375000
X0.833200 Y1.375000
X0.833200 Y1.650000
X0.624900 Y1.650000
X0.416600 Y1.650000
X0.208300 Y1.650000
X0.000000 Y1.650000
X0.000000 Y2.200000
X0.208300 Y2.200000
X0.416600 Y2.200000
X0.624900 Y2.200000
X0.833200 Y2.200000
X0.833200 Y2.475000
X0.624900 Y2.475000
X0.416600 Y2.475000
X0.208300 Y2.475000
X0.000000 Y2.475000
X0.000000 Y2.750000
X0.208300 Y2.750000
X0.416600 Y2.750000
X0.624900 Y2.750000
X0.833200 Y2.750000
X1.250000 Y2.750000
X1.458300 Y2.750000
X1.666600 Y2.750000
X1.874900 Y2.750000
X2.083200 Y2.750000
X2.083200 Y2.475000
X1.874900 Y2.475000
X1.666600 Y2.475000
X1.458300 Y2.475000
X1.250000 Y2.475000
X1.250000 Y2.200000
X1.458300 Y2.200000
X1.666600 Y2.200000
X1.874900 Y2.200000
X2.083200 Y2.200000
X2.500000 Y2.200000
X2.708300 Y2.200000
X2.916600 Y2.200000
X3.124900 Y2.200000
X3.333200 Y2.200000
X3.333200 Y2.475000
X3.124900 Y2.475000
X2.916600 Y2.475000
X2.708300 Y2.475000
X2.500000 Y2.475000
X2.500000 Y2.750000
X2.708300 Y2.750000
X2.916600 Y2.750000
X3.124900 Y2.750000
X3.333200 Y2.750000
X3.750000 Y2.750000
X3.958300 Y2.750000
X4.166600 Y2.750000
X4.374900 Y2.750000
X4.583200 Y2.750000
X4.583200 Y2.475000
X4.374900 Y2.475000
X4.166600 Y2.475000
X3.958300 Y2.475000
X3.750000 Y2.475000
X3.750000 Y2.200000
X3.958300 Y2.200000
X4.166600 Y2.200000
X4.374900 Y2.200000
X4.583200 Y2.200000
X5.000000 Y2.200000
X5.208300 Y2.200000
X5.416600 Y2.200000
X5.624900 Y2.200000
X5.833200 Y2.200000
X5.833200 Y2.475000
X5.624900 Y2.475000
X5.416600 Y2.475000
X5.208300 Y2.475000
X5.000000 Y2.475000
X5.000000 Y2.750000
X5.208300 Y2.750000
X5.416600 Y2.750000
X5.624900 Y2.750000
X5.833200 Y2.750000
X6.250000 Y2.750000
X6.458300 Y2.750000
X6.666600 Y2.750000
X6.874900 Y2.750000
X7.083200 Y2.750000
X7.083200 Y2.475000
X6.874900 Y2.475000
X6.666600 Y2.475000
X6.458300 Y2.475000
X6.250000 Y2.475000
X6.250000 Y2.200000
X6.458300 Y2.200000
X6.666600 Y2.200000
X6.874900 Y2.200000
X7.083200 Y2.200000
X7.500000 Y2.200000
X7.708300 Y2.200000
X7.916600 Y2.200000
X8.124900 Y2.200000
X8.333200 Y2.200000
X8.333200 Y2.475000
X8.124900 Y2.475000
X7.916600 Y2.475000
X7.708300 Y2.475000
X7.500000 Y2.475000
X7.500000 Y2.750000
X7.708300 Y2.750000
X7.916600 Y2.750000
X8.124900 Y2.750000
X8.333200 Y2.750000

X8.750000 Y2.750000
X8.750000 Y2.475000
X8.750000 Y2.200000
X9.032167 Y2.150246
X9.126222 Y2.408662
X9.220278 Y2.667077
X9.633833 Y2.428311
X9.457066 Y2.217649
X9.280300 Y2.006987
X9.464471 Y1.787500
X9.702628 Y1.925000
X9.940785 Y2.062500
X10.104111 Y1.613766
X9.833289 Y1.566013
X9.562466 Y1.518260
X9.562466 Y1.231740
X9.833289 Y1.183987
X10.104111 Y1.136234
X9.940785 Y0.687500
X9.702628 Y0.825000
X9.464471 Y0.962500
X9.280300 Y0.743013
X9.457066 Y0.532351
X9.633833 Y0.321689
X9.220278 Y0.082923
X9.126222 Y0.341338
X9.032167 Y0.599754
X8.750000 Y0.550000
X8.750000 Y0.275000
X8.750000 Y0.000000

X9.163800 Y1.375000 (winner hole)

X-0.416600 Y0.550000
X-0.416600 Y0.275000
X-0.416600 Y0.000000
X-0.999963 Y0.241637
X-0.805509 Y0.436091
X-0.611054 Y0.630546
X-0.691600 Y0.825000
X-0.966600 Y0.825000
X-1.241600 Y0.825000
X-0.999963 Y1.408363
X-0.805509 Y1.213909
X-0.611054 Y1.019454
X-0.416600 Y1.100000
X-0.416600 Y1.375000
X-0.416600 Y1.650000

X-0.416600 Y2.200000
X-0.833200 Y2.200000
X-1.249800 Y2.200000
X-1.249800 Y2.475000
X-0.833200 Y2.475000
X-0.416600 Y2.475000

X-0.416600 Y2.750000
X-0.833200 Y2.750000
X-1.249800 Y2.750000
N60 G80 G00 Z1 	
N65 X0 Y0 	
N70 M05 	
N75 M30

