%
(This file has been optimized to run on )
(the shapeoko xl CNC machine )
M8 (Coolant flood on)
G20 (Unit in Inches)
G90 (Absolute distance mode)
G64 P0.01 (Exact Path 0.001 tol.)
G17
G40 (Cancel diameter comp.)
G49 (Cancel length comp.)
G54 
G94
T1M6 (Tool change to T1)

G1 F6  Z 0.75
G1 F20 X 0 Y 0

G1 F6 Z 0.25 
G0 X  -0.2084000 Y  -0.1375000
G1 F5 Z  0.025 
G1 F5 Z -0.025
G1 F10 X -0.2084000 Y   0.6875000
G1 F5 Z 0.025 
G1 F6 Z 0.25 
G0 X  -0.2084000 Y   0.9625000
G1 F5 Z  0.025 
G1 F5 Z -0.025
G1 F10 X -0.2084000 Y   1.7875000
G1 F5 Z 0.025
G1 F6 Z 0.25 
G0 X  -0.2084000 Y   2.0625000
G1 F5 Z  0.025 
G1 F5 Z -0.025
G1 F10 X -0.2084000 Y   2.8875000
G1 F5 Z 0.025
G1 F6 Z 0.25 
G0 X  -0.6250000 Y   2.8875000
G1 F5 Z  0.025 
G1 F5 Z -0.025
G1 F10 X -0.6250000 Y   2.0625000
G1 F5 Z 0.025
G1 F6 Z 0.25 
G0 X  -1.0416000 Y   2.0625000
G1 F5 Z  0.025 
G1 F5 Z -0.025
G1 F10 X  -1.0416000 Y   2.8875000
G1 F5 Z 0.025
G1 F6 Z 0.25 
G0 X  -1.4584000 Y   2.8875000
G1 F5 Z  0.025 
G1 F5 Z -0.025
G1 F10 X  -1.4584000 Y   2.0625000
G1 F5 Z 0.025
G1 F6 Z 0.25 





G0 X  -1.4584000 Y   2.3375000
G1 F5 Z 0.025 
G1 F5 Z -0.025
G1 F10 X  -0.2084000 Y   2.3375000
G1 F10 X   8.7500000 Y   2.3375000
G2 F10 X   8.7500000 Y   0.4125000 I  -0.0000000 J  -0.9625000
G1 F10 X  -0.4166000 Y   0.4125000
G2 F10 X  -0.4166000 Y   1.2375000 I   0.0000000 J   0.4125000
G1 F10 X   8.5416000 Y   1.2375000

G1 F5 Z 0.025
G1 F6 Z 0.25 
G0 X   9.4375000 Y   1.3750000
G1 F5 Z 0.025 
G1 F5 Z -0.025
G1 F10 X  10.2625000 Y   1.3750000
G1 F5 Z 0.025
G1 F6 Z 0.25 


G0 X   8.5416000 Y  -0.1375000
G1 F5 Z 0.025 
G1 F5 Z -0.025
G1 F10 X   8.5416000 Y   0.6875000
G1 F5 Z  0.025
G1 F6 Z 0.25 
G0 X   8.5416000 Y   0.9625000
G1 F5 Z 0.025 
G1 F5 Z -0.025
G1 F10 X   8.5416000 Y   1.7875000
G1 F5 Z  0.025
G1 F6 Z 0.25 
G0 X   8.5416000 Y   2.0625000
G1 F5 Z 0.025 
G1 F5 Z -0.025
G1 F10 X   8.5416000 Y   2.8875000
G1 F5 Z  0.025
G1 F6 Z 0.25 
G0 X   7.2916000 Y   2.8875000
G1 F5 Z 0.025 
G1 F5 Z -0.025
G1 F10 X   7.2916000 Y   2.0625000
G1 F5 Z  0.025
G1 F6 Z 0.25 
G0 X   7.2916000 Y   1.7875000
G1 F5 Z 0.025 
G1 F5 Z -0.025
G1 F10 X   7.2916000 Y   0.9625000
G1 F5 Z  0.025
G1 F6 Z 0.25 
G0 X   7.2916000 Y   0.6875000
G1 F5 Z 0.025 
G1 F5 Z -0.025
G1 X   7.2916000 Y  -0.1375000
G1 F5 Z  0.025
G1 F6 Z 0.25 
G0 X   6.0416000 Y  -0.1375000
G1 F5 Z 0.025 
G1 F5 Z -0.025
G1 F10 X   6.0416000 Y   0.6875000
G1 F5 Z  0.025
G1 F6 Z 0.25 
G0 X   6.0416000 Y   0.9625000
G1 F5 Z 0.025 
G1 F5 Z -0.025
G1 F10 X   6.0416000 Y   1.7875000
G1 F5 Z  0.025
G1 F6 Z 0.25 
G0 X   6.0416000 Y   2.0625000
G1 F5 Z 0.025 
G1 F5 Z -0.025
G1 F10 X   6.0416000 Y   2.8875000
G1 F5 Z  0.025
G1 F6 Z 0.25 
G0 X   4.7916000 Y    2.8875000  
G1 F5 Z 0.025 
G1 F5 Z -0.025
G1 F10 X   4.7916000 Y   2.0625000
G1 F5 Z  0.025
G1 F6 Z 0.25 
G0 X   4.7916000 Y   1.7875000   
G1 F5 Z 0.025 
G1 F5 Z -0.025
G1 F10 X   4.7916000 Y   0.9625000
G1 F5 Z  0.025
G1 F6 Z 0.25 
G0 X   4.7916000 Y    0.6875000 
G1 F5 Z 0.025 
G1 F5 Z -0.025
G1 F10 X   4.7916000 Y   -0.1375000
G1 F5 Z  0.025
G1 F6 Z 0.25 
G0 X   3.5416000 Y  -0.1375000
G1 F5 Z 0.025 
G1 F5 Z -0.025
G1 F10 X   3.5416000 Y   0.6875000
G1 F5 Z  0.025
G1 F6 Z 0.25 
G0 X   3.5416000 Y   0.9625000
G1 F5 Z 0.025 
G1 F5 Z -0.025
G1 F10 X   3.5416000 Y   1.7875000
G1 F5 Z  0.025
G1 F6 Z 0.25 
G0 X   3.5416000 Y   2.0625000
G1 F5 Z 0.025 
G1 F5 Z -0.025
G1 F10 X   3.5416000 Y   2.8875000
G1 F5 Z  0.025
G1 F6 Z 0.25 
G0 X   2.2916000 Y    2.8875000  
G1 F5 Z 0.025 
G1 F5 Z -0.025
G1 F10 X   2.2916000 Y   2.0625000
G1 F5 Z  0.025
G1 F6 Z 0.25 
G0 X   2.2916000 Y   1.7875000  
G1 F5 Z 0.025 
G1 F5 Z -0.025
G1 F10 X   2.2916000 Y   0.9625000
G1 F5 Z  0.025
G1 F6 Z 0.25 
G0 X   2.2916000 Y   0.6875000  
G1 F5 Z 0.025 
G1 F5 Z -0.025
G1 F10 X   2.2916000 Y   -0.1375000
G1 F5 Z  0.025
G1 F6 Z 0.25 
G0 X   1.0416000 Y  -0.1375000
G1 F5 Z 0.025 
G1 F5 Z -0.025
G1 F10 X   1.0416000 Y   0.6875000
G1 F5 Z  0.025
G1 F6 Z 0.25 

(Skunk)
G0 X   1.0416000 Y   0.9625000
G1 F5 Z 0.025 
G1 F5 Z -0.025
G1 F10 X   1.0416000 Y   1.2375000
G1 F5 Z  0.025
G1 F6 Z 0.25 
G0 X   1.1165508 Y   1.3279919
G1 F5 Z 0.025 
G1 F5 Z -0.025
G1 F10 X   1.1269930 Y   1.3596903
G1 X   1.1263969 Y   1.3896991
G1 X   1.1110647 Y   1.4073008
G1 X   1.0867427 Y   1.4102379
G1 X   1.0684384 Y   1.3978822
G1 X   1.0392152 Y   1.3422870
G1 X   1.0259848 Y   1.3311355
G1 X   1.0043031 Y   1.3288583
G1 X   0.9879908 Y   1.3380514
G1 X   0.9786782 Y   1.3580854
G1 X   0.9805295 Y   1.3822931
G1 X   0.9901552 Y   1.4106607
G1 F5 Z  0.025
G1 F6 Z 0.25 
G0 X   1.0416000 Y   1.5125000
G1 F5 Z 0.025 
G1 F5 Z -0.025
G1 F10 X   1.0416000 Y   1.7875000
G1 F5 Z  0.025
G1 F6 Z 0.25 


G0 X   1.0416000 Y   2.0625000
G1 F5 Z 0.025 
G1 F5 Z -0.025
G1 F10 X   1.0416000 Y   2.8875000
G1 F5 Z  0.025
G1 F6 Z 0.25 
G0 X  -0.2084000 Y   2.8875000
G1 F5 Z 0.025 
G1 F5 Z -0.025

G1 F10 X  -1.4584000 Y   2.8875000
G1 X  -1.4584000 Y   2.0625000
G1 X  -0.2084000 Y   2.0625000
G1 F5 Z  0.025
G1 F6 Z 0.25 


G0 X  -1.4584000 Y   2.6125000
G1 F5 Z 0.025 
G1 F5 Z -0.025
G1 F10 X  -0.2084000 Y   2.6125000
G1 F10 X   8.7500000 Y   2.6125000
G2 F10 X   8.7500000 Y   0.1375000 I  -0.0000000 J  -1.2375000
G1 F10 X  -0.4166000 Y   0.1375000
G2 F10 X  -0.4166000 Y   1.5125000 I   0.0000000 J   0.6875000
G1 F10 X   8.5416000 Y   1.5125000
G1 F5 Z  0.025
G1 F6 Z 0.25 

G0 X   8.5416000 Y   1.7875000
G1 F5 Z 0.025 
G1 F5 Z -0.025

G1 F10 X   8.5416000 Y   0.9625000
G1 F10 X  -0.4166000 Y   0.9625000
G3 F10 X  -0.4166000 Y   0.6875000 I   0.0000000 J  -0.1375000
G1 F10 X   8.7500000 Y   0.6875000
G3 F10 X   8.7500000 Y   2.0625000 I   0.0000000 J   0.6875000
G1 F10 X  -0.2084000 Y   2.0625000
G1 F10 X  -0.2084000 Y   2.8875000
G1 F10 X   8.7500000 Y   2.8875000
G2 F10 X   8.7500000 Y  -0.1375000 I  -0.0000000 J  -1.5125000
G1 F10 X  -0.4166000 Y  -0.1375000
G2 F10 X  -0.4166000 Y   1.7875000 I   0.0000000 J   0.9625000
G1 F10 X   8.5416000 Y   1.7875000
G1 F5 Z  0.025
G1 F6 Z 0.25 


G0 X9.163800 Y1.375000 (winner hole)
G1 F5 Z -0.025 
G1 F5 Z  0.25
G0 X   0.0000000 Y   0.0000000
G1 F5 Z -0.025 
G1 F5 Z 0.25


M9 (Coolant off)
M5 (Spindle off)
M2 (Prgram end)